X: 5
T: The Skye Boat Song
R: waltz
M: 3/4
L: 1/8
K: Gmaj
|: D3 E D2 | G4 G2 | A3 B A2 | d6 | B3 A B2 | E4 E2 | D6 | D6 :|B3 G B2 | B6 | A3 E A2 | A6 | G3 E G2 | G4 G2 | E6 | E6 |B3 G B2 | B6 | A3 E A2 | A6 | G3 E G2 | G4 G2 | E6 | D6 |D3 E D2 | G4 G2 | A3 B A2 | d6 | B3 A B2 | E4 E2 | D6 | D6 |]


Tune 3690	Setting 16682

